picto/self-service-validation-blue-framed.svg

<svg class="color-immutable" width="30" height="30" viewBox="0 0 30 30" fill="none" xmlns="http://www.w3.org/2000/svg"><path d="M30 0H0V30H30V0Z" fill="#2D327D"/><path d="M25.5 2.625H4.5C3.46613 2.625 2.625 3.46613 2.625 4.5V25.5C2.625 26.5339 3.46613 27.375 4.5 27.375H25.5C26.5339 27.375 27.375 26.5339 27.375 25.5V4.5C27.375 3.46613 26.5339 2.625 25.5 2.625Z" fill="white"/><path d="M25.5 3C26.325 3 27 3.675 27 4.5V25.5C27 26.325 26.325 27 25.5 27H4.5C3.675 27 3 26.325 3 25.5V4.5C3 3.675 3.675 3 4.5 3H25.5Z" fill="#F7B500"/><path d="M17.0287 19.0476C17.0287 20.0874 16.1857 20.9303 15.1462 20.9303C14.1065 20.9303 13.2634 20.0875 13.2634 19.0476C13.2634 18.0079 14.1064 17.1649 15.1462 17.1649C16.1857 17.1649 17.0287 18.0079 17.0287 19.0476Z" fill="black"/><path d="M15.147 11.9215C11.1654 11.9215 7.56243 14.2797 5.96875 17.928C7.56138 21.5765 11.1643 23.9347 15.147 23.9347C19.1286 23.9347 22.7316 21.5765 24.3255 17.928C22.7328 14.2797 19.1296 11.9215 15.147 11.9215ZM15.1462 22.8112V22.8045C13.0713 22.8045 11.3895 21.1224 11.3895 19.0476C11.3895 16.9727 13.0713 15.2906 15.1462 15.2906C17.2211 15.2906 18.9028 16.9727 18.9028 19.0476H20.0247C20.0247 16.3533 17.8392 14.169 15.1459 14.169C12.4532 14.169 10.2677 16.3533 10.2677 19.0476C10.2677 20.0965 10.6 21.0677 11.1634 21.8641C9.4885 21.0239 8.08728 19.664 7.2106 17.928H7.2109C8.7232 14.9337 11.7922 13.0453 15.1479 13.0453C18.5014 13.0453 21.5711 14.9337 23.0834 17.928H23.0832C21.571 20.9226 18.5019 22.8112 15.1462 22.8112Z" fill="black"/></svg>

<svg class="color-immutable" width="30" height="30" viewBox="0 0 30 30" fill="none" xmlns="http://www.w3.org/2000/svg"><g clip-path="url(#a)"><path d="M30 0H0v30h30V0Z" fill="#2D327D"/><path d="M25.5 2.625h-21A1.877 1.877 0 0 0 2.625 4.5v21c0 1.034.841 1.875 1.875 1.875h21a1.877 1.877 0 0 0 1.875-1.875v-21A1.877 1.877 0 0 0 25.5 2.625Z" fill="#fff"/><path d="M25.5 3c.825 0 1.5.675 1.5 1.5v21c0 .825-.675 1.5-1.5 1.5h-21c-.825 0-1.5-.675-1.5-1.5v-21C3 3.675 3.675 3 4.5 3h21Z" fill="#F7B500"/><path d="M17.029 19.048a1.883 1.883 0 1 1-3.766 0 1.883 1.883 0 0 1 3.766 0Z" fill="#000"/><path d="M15.147 11.921a10.016 10.016 0 0 0-9.178 6.007 10.016 10.016 0 0 0 18.357 0 10.014 10.014 0 0 0-9.179-6.006Zm0 10.89v-.006a3.757 3.757 0 1 1 3.756-3.757h1.122a4.88 4.88 0 0 0-9.757 0c0 1.049.332 2.02.895 2.816a8.882 8.882 0 0 1-3.952-3.936 8.891 8.891 0 0 1 15.872 0 8.891 8.891 0 0 1-7.937 4.883Z" fill="#000"/></g><defs><clipPath id="a"><path fill="#fff" d="M0 0h30v30H0z"/></clipPath></defs></svg>
